svgs/light/cloud-drizzle.svg

<svg xmlns="http://www.w3.org/2000/svg" viewBox="0 0 512 512"><!--! Font Awesome Pro 6.0.0 by @fontawesome - https://fontawesome.com License - https://fontawesome.com/license (Commercial License) Copyright 2022 Fonticons, Inc. --><path d="M48 360c-8.75 0-16 7.25-16 16V416c0 8.75 7.25 16 16 16S64 424.8 64 416v-40C64 367.3 56.75 360 48 360zM240 360c-8.75 0-16 7.25-16 16V416c0 8.75 7.25 16 16 16S256 424.8 256 416v-40C256 367.3 248.8 360 240 360zM144 440c-8.75 0-16 7.25-16 16v40C128 504.8 135.3 512 144 512S160 504.8 160 496v-40C160 447.3 152.8 440 144 440zM432 360c-8.75 0-16 7.25-16 16V416c0 8.75 7.25 16 16 16S448 424.8 448 416v-40C448 367.3 440.8 360 432 360zM336 440c-8.75 0-16 7.25-16 16v40c0 8.75 7.25 16 16 16s16-7.25 16-16v-40C352 447.3 344.8 440 336 440zM414.7 112.2C407.2 66.75 367.6 32 320 32c-18.97 0-37.09 5.469-52.59 15.69C246.7 18.22 212.6 0 176 0C114.3 0 64 50.25 64 112c0 2.719 .0938 5.438 .3125 8.188C25.84 136.1 0 173.7 0 216C0 273.3 46.66 320 104 320h304C465.3 320 512 273.3 512 216C512 160.9 468.9 115.7 414.7 112.2zM408 288h-304C64.31 288 32 255.7 32 216c0-32.59 22.19-61.13 53.97-69.38c8.219-2.156 13.34-10.34 11.66-18.66C96.56 122.8 96 117.5 96 112C96 67.88 131.9 32 176 32c30.97 0 59.41 18.31 72.47 46.63c2.188 4.781 6.594 8.188 11.78 9.062c5.188 1.094 10.47-.75 14.16-4.531C286.6 70.81 302.8 64 320 64c35.28 0 64 28.72 64 64c0 8.844 7.156 16 16 16h8C447.7 144 480 176.3 480 216S447.7 288 408 288z"/></svg>

<svg xmlns="http://www.w3.org/2000/svg" viewBox="0 0 512 512"><!-- Font Awesome Pro 5.15.3 by @fontawesome - https://fontawesome.com License - https://fontawesome.com/license (Commercial License) --><path d="M48 360c-8.8 0-16 7.2-16 16v40c0 8.8 7.2 16 16 16s16-7.2 16-16v-40c0-8.8-7.2-16-16-16zm96 80c-8.8 0-16 7.2-16 16v40c0 8.8 7.2 16 16 16s16-7.2 16-16v-40c0-8.8-7.2-16-16-16zm96-80c-8.8 0-16 7.2-16 16v40c0 8.8 7.2 16 16 16s16-7.2 16-16v-40c0-8.8-7.2-16-16-16zm96 80c-8.8 0-16 7.2-16 16v40c0 8.8 7.2 16 16 16s16-7.2 16-16v-40c0-8.8-7.2-16-16-16zm96-80c-8.8 0-16 7.2-16 16v40c0 8.8 7.2 16 16 16s16-7.2 16-16v-40c0-8.8-7.2-16-16-16zm-16.3-247.7C411.8 67.4 373.9 32 328 32c-17.8 0-34.8 5.3-49.2 15.2C256.3 17.7 221.5 0 184 0 117.8 0 64 53.8 64 120v.4c-38.3 16-64 53.5-64 95.6 0 57.3 46.7 104 104 104h304c57.3 0 104-46.7 104-104 0-54.8-42.6-99.8-96.3-103.7zM408 288H104c-39.7 0-72-32.3-72-72 0-32.3 21.9-60.7 53.3-69.2l13.3-3.6-2-17.2c-.3-2-.6-4-.6-6 0-48.5 39.5-88 88-88 32.2 0 61.8 17.9 77.2 46.8l10.6 19.8L287 82.1C297.9 70.4 312.4 64 328 64c30.9 0 56 25.1 56 56 0 1.6-.3 3.1-.8 6.9l-2.5 20 23.5-2.4c1.2-.2 2.5-.4 3.8-.4 39.7 0 72 32.3 72 72S447.7 288 408 288z"/></svg>
